gavel.svg

<svg fill="currentColor" viewBox="0 0 24 24"><path d="m2.3 20.28 9.6-9.6-1.4-1.42-.72.71a.996.996 0 0 1-1.41 0l-.71-.71a.996.996 0 0 1 0-1.41l5.66-5.66a.996.996 0 0 1 1.41 0l.71.71c.39.39.39 1.02 0 1.41l-.71.69 1.42 1.43a.996.996 0 0 1 1.41 0c.39.39.39 1.03 0 1.42l1.41 1.41.71-.71c.39-.39 1.03-.39 1.42 0l.7.71c.39.39.39 1.03 0 1.42l-5.65 5.65c-.39.39-1.03.39-1.42 0l-.7-.7a.99.99 0 0 1 0-1.42l.7-.71-1.41-1.41-9.61 9.61a.996.996 0 0 1-1.41 0c-.39-.39-.39-1.03 0-1.42M20 19a2 2 0 0 1 2 2v1H12v-1a2 2 0 0 1 2-2z"/></svg>

<svg  viewBox="0 0 24 24" fill="currentColor"><path  d="M2.3,20.28L11.9,10.68L10.5,9.26L9.78,9.97C9.39,10.36 8.76,10.36 8.37,9.97L7.66,9.26C7.27,8.87 7.27,8.24 7.66,7.85L13.32,2.19C13.71,1.8 14.34,1.8 14.73,2.19L15.44,2.9C15.83,3.29 15.83,3.92 15.44,4.31L14.73,5L16.15,6.43C16.54,6.04 17.17,6.04 17.56,6.43C17.95,6.82 17.95,7.46 17.56,7.85L18.97,9.26L19.68,8.55C20.07,8.16 20.71,8.16 21.1,8.55L21.8,9.26C22.19,9.65 22.19,10.29 21.8,10.68L16.15,16.33C15.76,16.72 15.12,16.72 14.73,16.33L14.03,15.63C13.63,15.24 13.63,14.6 14.03,14.21L14.73,13.5L13.32,12.09L3.71,21.7C3.32,22.09 2.69,22.09 2.3,21.7C1.91,21.31 1.91,20.67 2.3,20.28M20,19A2,2 0 0,1 22,21V22H12V21A2,2 0 0,1 14,19H20Z"/></svg>
